;FLAVOR:Marlin
;TIME:19122
;Filament used: 8.87076m
;Layer height: 0.2
;MINX:83.895
;MINY:31.442
;MINZ:0.3
;MAXX:121.545
;MAXY:152.175
;MAXZ:93.9
;Generated with Cura_SteamEngine 4.6.2
M140 S60
M105
M190 S60
M104 S197
M105
M109 S197
M82 ;absolute extrusion mode
G21 ;metric values
G90 ;absolute positioning
M82 ;set extruder to absolute mode
M107 ;start with the fan off
G28 X0 Y0 ;move X/Y to min endstops
G28 Z0 ;move Z to min endstops
G1 Z15.0 F225 ;move the platform down 15mm
G92 E0 ;zero the extruded length
G1 F140 E30 ;extrude 3mm of feed stock
G1 X20 Y0 F140 E30
G92 E0 ;zero the extruded length again
G1 F225
M117 ;Printing...
G92 E0
G92 E0
G1 F1500 E-3
;LAYER_COUNT:469
;LAYER:0
M107
G0 F3600 X94.526 Y36.353 Z0.3
;TYPE:SKIRT
G1 F1500 E0
G1 F690 X94.874 Y35.644 E0.0394
G1 X95.292 Y34.973 E0.07884
G1 X95.775 Y34.349 E0.11821
G1 X96.318 Y33.776 E0.1576
G1 X96.917 Y33.261 E0.19701
G1 X97.565 Y32.81 E0.2364
G1 X98.256 Y32.426 E0.27583
G1 X98.981 Y32.114 E0.31521
G1 X99.734 Y31.877 E0.3546
G1 X100.508 Y31.718 E0.39402
G1 X101.293 Y31.637 E0.43339
G1 X103.195 Y31.627 E0.52828
G1 X103.984 Y31.667 E0.5677
G1 X104.764 Y31.786 E0.60706
G1 X105.529 Y31.984 E0.64648
G1 X106.269 Y32.258 E0.68585
G1 X106.978 Y32.606 E0.72526
G1 X107.649 Y33.024 E0.7647
G1 X108.273 Y33.507 E0.80406
G1 X108.846 Y34.05 E0.84345
G1 X109.361 Y34.649 E0.88286
G1 X109.812 Y35.297 E0.92225
G1 X110.196 Y35.988 E0.96169
G1 X110.508 Y36.713 E1.00106
G1 X110.745 Y37.466 E1.04045
G1 X110.904 Y38.24 E1.07987
G1 X110.985 Y39.025 E1.11924
G1 X110.995 Y92.497 E3.78697
G1 X113.745 Y92.497 E3.92417
G1 X114.534 Y92.537 E3.96358
G1 X115.314 Y92.656 E4.00295
G1 X116.079 Y92.854 E4.04237
G1 X116.819 Y93.128 E4.08174
G1 X117.528 Y93.476 E4.12114
G1 X118.199 Y93.894 E4.16058
G1 X118.823 Y94.377 E4.19995
G1 X119.396 Y94.92 E4.23934
G1 X119.911 Y95.519 E4.27875
G1 X120.362 Y96.167 E4.31813
G1 X120.746 Y96.858 E4.35757
G1 X121.058 Y97.583 E4.39695
G1 X121.295 Y98.336 E4.43634
G1 X121.454 Y99.11 E4.47576
G1 X121.535 Y99.895 E4.51513
G1 X121.545 Y144.375 E6.73425
G1 X121.505 Y145.164 E6.77366
G1 X121.386 Y145.944 E6.81302
G1 X121.188 Y146.709 E6.85245
G1 X120.914 Y147.449 E6.89182
G1 X120.566 Y148.158 E6.93122
G1 X120.148 Y148.829 E6.97066
G1 X119.665 Y149.453 E7.01003
G1 X119.122 Y150.026 E7.04941
G1 X118.523 Y150.541 E7.08882
G1 X117.875 Y150.992 E7.12821
G1 X117.184 Y151.376 E7.16765
G1 X116.459 Y151.688 E7.20703
G1 X115.706 Y151.925 E7.24641
G1 X114.932 Y152.084 E7.28583
G1 X114.147 Y152.165 E7.32521
G1 X91.695 Y152.175 E8.44534
G1 X90.906 Y152.135 E8.48475
G1 X90.126 Y152.016 E8.52412
G1 X89.361 Y151.818 E8.56354
G1 X88.621 Y151.544 E8.60291
G1 X87.912 Y151.196 E8.64231
G1 X87.241 Y150.778 E8.68175
G1 X86.617 Y150.295 E8.72112
G1 X86.044 Y149.752 E8.76051
G1 X85.529 Y149.153 E8.79992
G1 X85.078 Y148.505 E8.83931
G1 X84.694 Y147.814 E8.87875
G1 X84.382 Y147.089 E8.91812
G1 X84.145 Y146.336 E8.95751
G1 X83.986 Y145.562 E8.99693
G1 X83.905 Y144.777 E9.0363
G1 X83.895 Y100.297 E11.25542
G1 X83.935 Y99.508 E11.29483
G1 X84.054 Y98.728 E11.33419
G1 X84.252 Y97.963 E11.37362
G1 X84.526 Y97.223 E11.41299
G1 X84.874 Y96.514 E11.45239
G1 X85.292 Y95.843 E11.49183
G1 X85.775 Y95.219 E11.5312
G1 X86.318 Y94.646 E11.57058
G1 X86.917 Y94.131 E11.60999
G1 X87.565 Y93.68 E11.64938
G1 X88.256 Y93.296 E11.68882
G1 X88.981 Y92.984 E11.7282
G1 X89.734 Y92.747 E11.76758
G1 X90.508 Y92.588 E11.807
G1 X91.293 Y92.507 E11.84638
G1 X93.895 Y92.497 E11.97619
G1 X93.895 Y39.427 E14.62386
G1 X93.935 Y38.638 E14.66328
G1 X94.054 Y37.858 E14.70264
G1 X94.252 Y37.093 E14.74207
G1 X94.526 Y36.353 E14.78143
G0 F3600 X94.926 Y36.437
G1 F690 X95.273 Y35.751 E14.81979
G1 X95.689 Y35.104 E14.85816
G1 X96.17 Y34.504 E14.89653
G1 X96.711 Y33.957 E14.93491
G1 X97.306 Y33.469 E14.9733
G1 X97.948 Y33.046 E15.01166
G1 X98.631 Y32.691 E15.05006
G1 X99.346 Y32.41 E15.08839
G1 X100.088 Y32.204 E15.12681
G1 X100.846 Y32.076 E15.16516
G1 X101.695 Y32.027 E15.20759
G1 X103.195 Y32.027 E15.28243
G1 X103.963 Y32.067 E15.32079
G1 X104.723 Y32.186 E15.35917
G1 X105.466 Y32.384 E15.39753
G1 X106.185 Y32.658 E15.43592
G1 X106.871 Y33.005 E15.47427
G1 X107.518 Y33.421 E15.51265
G1 X108.118 Y33.902 E15.55102
G1 X108.665 Y34.443 E15.5894
G1 X109.153 Y35.038 E15.62779
G1 X109.576 Y35.68 E15.66615
G1 X109.931 Y36.363 E15.70455
G1 X110.212 Y37.078 E15.74288
G1 X110.418 Y37.82 E15.7813
G1 X110.546 Y38.578 E15.81965
G1 X110.595 Y39.427 E15.86208
G1 X110.595 Y92.897 E18.5297
G1 X113.745 Y92.897 E18.68686
G1 X114.513 Y92.937 E18.72523
G1 X115.273 Y93.056 E18.76361
G1 X116.016 Y93.254 E18.80197
G1 X116.735 Y93.528 E18.84035
G1 X117.421 Y93.875 E18.87871
G1 X118.068 Y94.291 E18.91708
G1 X118.668 Y94.772 E18.95545
G1 X119.215 Y95.313 E18.99383
G1 X119.703 Y95.908 E19.03222
G1 X120.126 Y96.55 E19.07058
G1 X120.481 Y97.233 E19.10898
G1 X120.762 Y97.948 E19.14731
G1 X120.968 Y98.69 E19.18573
G1 X121.096 Y99.448 E19.22408
G1 X121.145 Y100.297 E19.26651
G1 X121.145 Y144.375 E21.46557
G1 X121.105 Y145.143 E21.50394
G1 X120.986 Y145.903 E21.54232
G1 X120.788 Y146.646 E21.58068
G1 X120.514 Y147.365 E21.61907
G1 X120.167 Y148.051 E21.65742
G1 X119.751 Y148.698 E21.6958
G1 X119.27 Y149.298 E21.73416
G1 X118.729 Y149.845 E21.77254
G1 X118.134 Y150.333 E21.81094
G1 X117.492 Y150.756 E21.84929
G1 X116.809 Y151.111 E21.88769
G1 X116.094 Y151.392 E21.92602
G1 X115.352 Y151.598 E21.96444
G1 X114.594 Y151.726 E22.00279
G1 X113.745 Y151.775 E22.04522
G1 X91.695 Y151.775 E23.1453
G1 X90.927 Y151.735 E23.18367
G1 X90.167 Y151.616 E23.22205
G1 X89.424 Y151.418 E23.26041
G1 X88.705 Y151.144 E23.2988
G1 X88.019 Y150.797 E23.33715
G1 X87.372 Y150.381 E23.37552
G1 X86.772 Y149.9 E23.41389
G1 X86.225 Y149.359 E23.45227
G1 X85.737 Y148.764 E23.49066
G1 X85.314 Y148.122 E23.52902
G1 X84.959 Y147.439 E23.56742
G1 X84.678 Y146.724 E23.60575
G1 X84.472 Y145.982 E23.64417
G1 X84.344 Y145.224 E23.68252
G1 X84.295 Y144.375 E23.72495
G1 X84.295 Y100.297 E25.92401
G1 X84.335 Y99.529 E25.96238
G1 X84.454 Y98.769 E26.00076
G1 X84.652 Y98.026 E26.03912
G1 X84.926 Y97.307 E26.07751
G1 X85.273 Y96.621 E26.11586
G1 X85.689 Y95.974 E26.15424
G1 X86.17 Y95.374 E26.1926
G1 X86.711 Y94.827 E26.23098
G1 X87.306 Y94.339 E26.26938
G1 X87.948 Y93.916 E26.30773
G1 X88.631 Y93.561 E26.34614
G1 X89.346 Y93.28 E26.38446
G1 X90.088 Y93.074 E26.42288
G1 X90.846 Y92.946 E26.46123
G1 X91.695 Y92.897 E26.50366
G1 X94.295 Y92.897 E26.63338
G1 X94.295 Y39.427 E29.301
G1 X94.335 Y38.659 E29.33937
G1 X94.454 Y37.899 E29.37775
G1 X94.652 Y37.156 E29.41611
G1 X94.926 Y36.437 E29.4545
G0 F3600 X95.325 Y36.524
G1 F690 X95.672 Y35.861 E29.49183
G1 X96.087 Y35.238 E29.52918
G1 X96.566 Y34.664 E29.56648
G1 X97.103 Y34.143 E29.60381
G1 X97.693 Y33.684 E29.6411
G1 X98.329 Y33.289 E29.67845
G1 X99.003 Y32.965 E29.71576
G1 X99.708 Y32.715 E29.75308
G1 X100.436 Y32.541 E29.79042
G1 X101.178 Y32.446 E29.82774
G1 X101.695 Y32.427 E29.85355
G1 X103.195 Y32.427 E29.92839
G1 X103.942 Y32.467 E29.96571
G1 X104.68 Y32.586 E30.00301
G1 X105.402 Y32.784 E30.04036
G1 X106.098 Y33.057 E30.07766
G1 X106.761 Y33.404 E30.11499
G1 X107.384 Y33.819 E30.15234
G1 X107.958 Y34.298 E30.18963
G1 X108.479 Y34.835 E30.22696
G1 X108.938 Y35.425 E30.26426
G1 X109.333 Y36.061 E30.30161
G1 X109.657 Y36.735 E30.33892
G1 X109.907 Y37.44 E30.37624
G1 X110.081 Y38.168 E30.41358
G1 X110.176 Y38.91 E30.4509
G1 X110.195 Y39.427 E30.47671
G1 X110.195 Y93.297 E33.1643
G1 X113.745 Y93.297 E33.34141
G1 X114.492 Y93.337 E33.37873
G1 X115.23 Y93.456 E33.41602
G1 X115.952 Y93.654 E33.45337
G1 X116.648 Y93.927 E33.49067
G1 X117.311 Y94.274 E33.528
G1 X117.934 Y94.689 E33.56535
G1 X118.508 Y95.168 E33.60265
G1 X119.029 Y95.705 E33.63998
G1 X119.488 Y96.295 E33.67727
G1 X119.883 Y96.931 E33.71462
G1 X120.207 Y97.605 E33.75193
G1 X120.457 Y98.31 E33.78925
G1 X120.631 Y99.038 E33.82659
G1 X120.726 Y99.78 E33.86391
G1 X120.745 Y100.297 E33.88973
G1 X120.745 Y144.375 E36.08879
G1 X120.705 Y145.122 E36.12611
G1 X120.586 Y145.86 E36.1634
G1 X120.388 Y146.582 E36.20075
G1 X120.115 Y147.278 E36.23805
G1 X119.768 Y147.941 E36.27539
G1 X119.353 Y148.564 E36.31273
G1 X118.874 Y149.138 E36.35003
G1 X118.337 Y149.659 E36.38736
G1 X117.747 Y150.118 E36.42465
G1 X117.111 Y150.513 E36.462
G1 X116.437 Y150.837 E36.49931
G1 X115.732 Y151.087 E36.53663
G1 X115.004 Y151.261 E36.57397
G1 X114.262 Y151.356 E36.6113
G1 X113.745 Y151.375 E36.63711
G1 X91.695 Y151.375 E37.73718
G1 X90.948 Y151.335 E37.77451
G1 X90.21 Y151.216 E37.8118
G1 X89.488 Y151.018 E37.84915
G1 X88.792 Y150.745 E37.88645
G1 X88.129 Y150.398 E37.92378
G1 X87.506 Y149.983 E37.96113
G1 X86.932 Y149.504 E37.99843
G1 X86.411 Y148.967 E38.03576
G1 X85.952 Y148.377 E38.07305
G1 X85.557 Y147.741 E38.1104
G1 X85.233 Y147.067 E38.14771
G1 X84.983 Y146.362 E38.18503
G1 X84.809 Y145.634 E38.22237
G1 X84.714 Y144.892 E38.25969
G1 X84.695 Y144.375 E38.2855
G1 X84.695 Y100.297 E40.48457
G1 X84.735 Y99.55 E40.52189
G1 X84.854 Y98.812 E40.55918
G1 X85.052 Y98.09 E40.59653
G1 X85.325 Y97.394 E40.63383
G1 X85.672 Y96.731 E40.67116
G1 X86.087 Y96.108 E40.70851
G1 X86.566 Y95.534 E40.74581
G1 X87.103 Y95.013 E40.78314
G1 X87.693 Y94.554 E40.82043
G1 X88.329 Y94.159 E40.85778
G1 X89.003 Y93.835 E40.89509
G1 X89.708 Y93.585 E40.93241
G1 X90.436 Y93.411 E40.96975
G1 X91.178 Y93.316 E41.00707
G1 X91.695 Y93.297 E41.03289
G1 X94.695 Y93.297 E41.18256
G1 X94.695 Y39.427 E43.87014
G1 X94.735 Y38.68 E43.90746
G1 X94.854 Y37.942 E43.94476
G1 X95.052 Y37.22 E43.98211
G1 X95.325 Y36.524 E44.01941
G0 F3600 X95.725 Y36.613
G1 F690 X96.07 Y35.974 E44.05564
G1 X96.484 Y35.377 E44.09188
G1 X96.96 Y34.829 E44.1281
G1 X97.494 Y34.336 E44.16435
G1 X98.079 Y33.906 E44.20058
G1 X98.708 Y33.542 E44.23683
G1 X99.373 Y33.249 E44.27309
G1 X100.066 Y33.031 E44.30933
G1 X100.778 Y32.891 E44.34553
G1 X101.695 Y32.827 E44.39139
G1 X103.195 Y32.827 E44.46623
G1 X103.92 Y32.867 E44.50246
G1 X104.637 Y32.986 E44.53872
G1 X105.336 Y33.184 E44.57496
G1 X106.009 Y33.457 E44.61119
G1 X106.648 Y33.802 E44.64742
G1 X107.245 Y34.216 E44.68367
G1 X107.793 Y34.692 E44.71988
G1 X108.286 Y35.226 E44.75614
G1 X108.716 Y35.811 E44.79236
G1 X109.08 Y36.44 E44.82862
G1 X109.373 Y37.105 E44.86488
G1 X109.591 Y37.798 E44.90112
G1 X109.731 Y38.51 E44.93732
G1 X109.795 Y39.427 E44.98318
G1 X109.795 Y93.697 E47.69072
G1 X113.745 Y93.697 E47.88779
G1 X114.47 Y93.737 E47.92402
G1 X115.187 Y93.856 E47.96028
G1 X115.886 Y94.054 E47.99652
G1 X116.559 Y94.327 E48.03275
G1 X117.198 Y94.672 E48.06898
G1 X117.795 Y95.086 E48.10523
G1 X118.343 Y95.562 E48.14144
G1 X118.836 Y96.096 E48.1777
G1 X119.266 Y96.681 E48.21392
G1 X119.63 Y97.31 E48.25018
G1 X119.923 Y97.975 E48.28644
G1 X120.141 Y98.668 E48.32268
G1 X120.281 Y99.38 E48.35888
G1 X120.345 Y100.297 E48.40474
G1 X120.345 Y144.375 E50.6038
G1 X120.305 Y145.1 E50.64003
G1 X120.186 Y145.817 E50.67629
G1 X119.988 Y146.516 E50.71253
G1 X119.715 Y147.189 E50.74877
G1 X119.37 Y147.828 E50.785
G1 X118.956 Y148.425 E50.82124
G1 X118.48 Y148.973 E50.85746
G1 X117.946 Y149.466 E50.89371
G1 X117.361 Y149.896 E50.92994
G1 X116.732 Y150.26 E50.96619
G1 X116.067 Y150.553 E51.00245
G1 X115.374 Y150.771 E51.03869
G1 X114.662 Y150.911 E51.07489
G1 X113.745 Y150.975 E51.12075
G1 X91.695 Y150.975 E52.22083
G1 X90.97 Y150.935 E52.25706
G1 X90.253 Y150.816 E52.29332
G1 X89.554 Y150.618 E52.32957
G1 X88.881 Y150.345 E52.3658
G1 X88.242 Y150 E52.40203
G1 X87.645 Y149.586 E52.43827
G1 X87.097 Y149.11 E52.47449
G1 X86.604 Y148.576 E52.51075
G1 X86.174 Y147.991 E52.54697
G1 X85.81 Y147.362 E52.58322
G1 X85.517 Y146.697 E52.61948
G1 X85.299 Y146.004 E52.65572
G1 X85.159 Y145.292 E52.69193
G1 X85.095 Y144.375 E52.73779
G1 X85.095 Y100.297 E54.93685
G1 X85.135 Y99.572 E54.97307
G1 X85.254 Y98.855 E55.00933
G1 X85.452 Y98.156 E55.04558
G1 X85.725 Y97.483 E55.08181
G1 X86.07 Y96.844 E55.11804
G1 X86.484 Y96.247 E55.15429
G1 X86.96 Y95.699 E55.1905
G1 X87.494 Y95.206 E55.22676
G1 X88.079 Y94.776 E55.26298
G1 X88.708 Y94.412 E55.29924
G1 X89.373 Y94.119 E55.33549
G1 X90.066 Y93.901 E55.37174
G1 X90.778 Y93.761 E55.40794
G1 X91.695 Y93.697 E55.4538
G1 X95.095 Y93.697 E55.62343
G1 X95.095 Y39.427 E58.33097
G1 X95.135 Y38.702 E58.36719
G1 X95.254 Y37.985 E58.40345
G1 X95.452 Y37.286 E58.4397
G1 X95.725 Y36.613 E58.47593
G0 F3600 X96.124 Y36.706
G1 F690 X96.469 Y36.092 E58.51107
G1 X96.88 Y35.521 E58.54617
G1 X97.354 Y35 E58.58131
G1 X97.884 Y34.536 E58.61645
G1 X98.463 Y34.136 E58.65156
G1 X99.084 Y33.804 E58.68669
G1 X99.738 Y33.544 E58.7218
G1 X100.418 Y33.36 E58.75695
G1 X101.114 Y33.254 E58.79207
G1 X101.695 Y33.227 E58.82109
G1 X103.195 Y33.227 E58.89593
G1 X103.898 Y33.267 E58.93106
G1 X104.592 Y33.386 E58.96619
G1 X105.267 Y33.584 E59.00128
G1 X105.916 Y33.856 E59.03639
G1 X106.53 Y34.201 E59.07152
G1 X107.101 Y34.612 E59.10662
G1 X107.622 Y35.086 E59.14176
G1 X108.086 Y35.616 E59.17691
G1 X108.486 Y36.195 E59.21202
G1 X108.818 Y36.816 E59.24715
G1 X109.078 Y37.47 E59.28226
G1 X109.262 Y38.15 E59.31741
G1 X109.368 Y38.846 E59.35253
G1 X109.395 Y39.427 E59.38155
G1 X109.395 Y94.097 E62.10905
G1 X113.745 Y94.097 E62.32607
G1 X114.448 Y94.137 E62.3612
G1 X115.142 Y94.256 E62.39633
G1 X115.817 Y94.454 E62.43142
G1 X116.466 Y94.726 E62.46653
G1 X117.08 Y95.071 E62.50167
G1 X117.651 Y95.482 E62.53677
G1 X118.172 Y95.956 E62.57191
G1 X118.636 Y96.486 E62.60705
G1 X119.036 Y97.065 E62.64216
G1 X119.368 Y97.686 E62.67729
G1 X119.628 Y98.34 E62.7124
G1 X119.812 Y99.02 E62.74755
G1 X119.918 Y99.716 E62.78267
G1 X119.945 Y100.297 E62.81169
G1 X119.945 Y144.375 E65.01075
G1 X119.905 Y145.078 E65.04588
G1 X119.786 Y145.772 E65.08101
G1 X119.588 Y146.447 E65.1161
G1 X119.316 Y147.096 E65.15121
G1 X118.971 Y147.71 E65.18635
G1 X118.56 Y148.281 E65.22145
G1 X118.086 Y148.802 E65.25659
G1 X117.556 Y149.266 E65.29173
G1 X116.977 Y149.666 E65.32684
G1 X116.356 Y149.998 E65.36197
G1 X115.702 Y150.258 E65.39708
G1 X115.022 Y150.442 E65.43223
G1 X114.326 Y150.548 E65.46735
G1 X113.745 Y150.575 E65.49637
G1 X91.695 Y150.575 E66.59645
G1 X90.992 Y150.535 E66.63158
G1 X90.298 Y150.416 E66.66671
G1 X89.623 Y150.218 E66.7018
G1 X88.974 Y149.946 E66.73691
G1 X88.36 Y149.601 E66.77205
G1 X87.789 Y149.19 E66.80715
G1 X87.268 Y148.716 E66.84229
G1 X86.804 Y148.186 E66.87743
G1 X86.404 Y147.607 E66.91254
G1 X86.072 Y146.986 E66.94767
G1 X85.812 Y146.332 E66.98278
G1 X85.628 Y145.652 E67.01793
G1 X85.522 Y144.956 E67.05305
G1 X85.495 Y144.375 E67.08207
G1 X85.495 Y100.297 E69.28113
G1 X85.535 Y99.594 E69.31626
G1 X85.654 Y98.9 E69.35139
G1 X85.852 Y98.225 E69.38648
G1 X86.124 Y97.576 E69.42159
G1 X86.469 Y96.962 E69.45673
G1 X86.88 Y96.391 E69.49183
G1 X87.354 Y95.87 E69.52697
G1 X87.884 Y95.406 E69.56211
G1 X88.463 Y95.006 E69.59722
G1 X89.084 Y94.674 E69.63235
G1 X89.738 Y94.414 E69.66746
G1 X90.418 Y94.23 E69.70261
G1 X91.114 Y94.124 E69.73773
G1 X91.695 Y94.097 E69.76675
G1 X95.495 Y94.097 E69.95633
G1 X95.495 Y39.427 E72.68383
G1 X95.535 Y38.724 E72.71896
G1 X95.654 Y38.03 E72.75409
G1 X95.852 Y37.355 E72.78919
G1 X96.124 Y36.706 E72.82429
G0 F3600 X96.251 Y37.425
G1 F690 X96.523 Y36.801 E72.85825
G1 X96.867 Y36.213 E72.89224
G1 X97.277 Y35.669 E72.92623
G1 X97.748 Y35.178 E72.96017
G1 X98.273 Y34.744 E72.99415
G1 X98.845 Y34.375 E73.02811
G1 X99.457 Y34.076 E73.06209
G1 X100.099 Y33.851 E73.09603
G1 X100.764 Y33.702 E73.13003
G1 X101.695 Y33.627 E73.17663
G1 X103.195 Y33.627 E73.25147
G1 X103.875 Y33.667 E73.28545
G1 X104.545 Y33.786 E73.3194
G1 X105.197 Y33.983 E73.35338
G1 X105.821 Y34.255 E73.38734
G1 X106.409 Y34.599 E73.42133
G1 X106.953 Y35.009 E73.45531
G1 X107.444 Y35.48 E73.48926
G1 X107.878 Y36.005 E73.52324
G1 X108.247 Y36.577 E73.5572
G1 X108.546 Y37.189 E73.59118
G1 X108.771 Y37.831 E73.62512
G1 X108.92 Y38.496 E73.65912
G1 X108.995 Y39.427 E73.70572
G1 X108.995 Y94.497 E76.45318
G1 X113.745 Y94.497 E76.69015
G1 X114.425 Y94.537 E76.72414
G1 X115.095 Y94.656 E76.75809
G1 X115.747 Y94.853 E76.79207
G1 X116.371 Y95.125 E76.82603
G1 X116.959 Y95.469 E76.86002
G1 X117.503 Y95.879 E76.894
G1 X117.994 Y96.35 E76.92795
G1 X118.428 Y96.875 E76.96193
